app/assets/images/Contenido/Odin/Empleos.svg

<svg fill="none" height="130" viewBox="0 0 117 130" width="117" xmlns="http://www.w3.org/2000/svg"><circle cx="57.8345" cy="45.4964" r="44.3397" stroke="#000" stroke-width="2.31337"/><g fill="#000"><path d="m18.4839 122.659h8.0231v2.214h-10.6636v-14.218h10.3792v2.214h-7.7387v3.697h6.8653v2.173h-6.8653zm24.4129-8.754c2.6202 0 4.4483 1.482 4.4483 4.753v6.215h-2.539v-5.89c0-1.93-.8937-2.864-2.4374-2.864-1.6655 0-2.8233 1.097-2.8233 3.25v5.504h-2.5389v-5.89c0-1.93-.8937-2.864-2.4374-2.864-1.6859 0-2.8233 1.097-2.8233 3.25v5.504h-2.539v-10.846h2.4171v1.381c.8125-.975 2.0718-1.503 3.5545-1.503 1.5844 0 2.9046.589 3.6561 1.807.8734-1.117 2.3359-1.807 4.0623-1.807zm13.705 0c3.1686 0 5.5044 2.193 5.5044 5.545 0 3.372-2.3358 5.565-5.5044 5.565-1.3812 0-2.5999-.467-3.4733-1.462v5.26h-2.539v-14.786h2.4171v1.421c.8531-1.035 2.1124-1.543 3.5952-1.543zm-.2844 8.937c1.8281 0 3.2092-1.32 3.2092-3.392s-1.3811-3.392-3.2092-3.392c-1.828 0-3.2295 1.32-3.2295 3.392s1.4015 3.392 3.2295 3.392zm8.1967 2.031v-15.071h2.5389v15.071zm16.0677-5.362c0 .203-.0203.508-.0406.751h-8.5106c.3047 1.585 1.625 2.6 3.5139 2.6 1.2187 0 2.1734-.386 2.9452-1.178l1.3609 1.564c-.975 1.158-2.4983 1.767-4.367 1.767-3.6358 0-5.9919-2.336-5.9919-5.565 0-3.23 2.3765-5.545 5.606-5.545 3.1686 0 5.4841 2.214 5.4841 5.606zm-5.4841-3.575c-1.6452 0-2.8436 1.056-3.0874 2.64h6.1544c-.2031-1.564-1.4015-2.64-3.067-2.64zm12.7977 9.079c-3.3311 0-5.7685-2.315-5.7685-5.565s2.4374-5.545 5.7685-5.545c3.3717 0 5.7888 2.295 5.7888 5.545s-2.4171 5.565-5.7888 5.565zm0-2.173c1.8484 0 3.2296-1.32 3.2296-3.392s-1.3812-3.392-3.2296-3.392c-1.828 0-3.2092 1.32-3.2092 3.392s1.3812 3.392 3.2092 3.392zm11.5681 2.173c-1.8077 0-3.6155-.528-4.5904-1.219l.9749-1.929c.9547.63 2.4171 1.076 3.778 1.076 1.605 0 2.275-.446 2.275-1.198 0-2.072-6.7029-.122-6.7029-4.448 0-2.052 1.8483-3.392 4.7732-3.392 1.4417 0 3.0877.345 4.0627.934l-.975 1.93c-1.036-.61-2.072-.813-3.108-.813-1.5437 0-2.2749.508-2.2749 1.219 0 2.194 6.7029.244 6.7029 4.489 0 2.031-1.869 3.351-4.9155 3.351z"/><path d="m84.6598 37.0828c-.1086-.1087-.2191-.2147-.3305-.3196v-3.4337c0-3.4145-2.7779-6.1924-6.1923-6.1924h-10.8619v-3.1119c0-3.3224-2.703-6.0252-6.0252-6.0252h-10.1702c-3.3224 0-6.0252 2.7028-6.0252 6.0252v3.1119h-10.8622c-3.4144 0-6.1923 2.7779-6.1923 6.1924v27.5633c0 3.4144 2.7779 6.1923 6.1923 6.1923h12.9287c.4935 0 .8936-.4001.8936-.8935 0-.4935-.4001-.8936-.8936-.8936h-12.9287c-2.4291 0-4.4053-1.9762-4.4053-4.4053v-18.026c1.7497 2.5953 4.6279 4.3697 7.9251 4.6141v3.2532c0 1.858 1.5117 3.3697 3.3697 3.3697 1.8581 0 3.3697-1.5117 3.3697-3.3697v-3.2241h14.9318c0 .0143-.0005.0285-.0005.0428 0 3.0427.9125 5.9449 2.6065 8.3955l-1.897 1.897c-.6624-.1875-1.4047-.022-1.9249.4986l-7.2866 7.2865c-1.4423 1.4423-1.4423 3.7891 0 5.2314 1.4457 1.4457 3.7857 1.4459 5.2315 0l7.2865-7.2865c.5204-.5204.686-1.2625.4986-1.9249l1.8987-1.8987c5.0209 3.4581 11.7137 3.4691 16.7464.028v1.1132c0 2.4291-1.9762 4.4053-4.4054 4.4053h-14.1139c-.4934 0-.8935.4001-.8935.8936s.4001.8935.8935.8935h14.1138c3.4144 0 6.1923-2.7779 6.1923-6.1923v-2.5505c.1113-.1046.2218-.2106.3305-.3194 5.7866-5.7865 5.7873-15.153 0-20.9402zm-37.8184-13.0576c0-2.337 1.9012-4.2382 4.2382-4.2382h10.1702c2.3369 0 4.2382 1.9012 4.2382 4.2382v3.1119h-1.9062v-3.1119c0-1.2859-1.0462-2.3321-2.332-2.3321h-10.1702c-1.2859 0-2.3321 1.0462-2.3321 2.3321v3.1119h-1.9061zm3.6931 3.1119v-3.1119c0-.3005.2445-.545.5451-.545h10.1702c.3006 0 .545.2445.545.545v3.1119zm-7.87 20.8505h-3.1653v-3.0081c0-.8727.71-1.5826 1.5827-1.5826s1.5826.7099 1.5826 1.5826zm-1.5826 4.3292c-.8727 0-1.5827-.71-1.5827-1.5827v-.9595h3.1653v.9595c0 .8727-.7099 1.5827-1.5826 1.5827zm3.3696-6.5937v-.7436c0-1.858-1.5116-3.3696-3.3697-3.3696-1.858 0-3.3697 1.5116-3.3697 3.3696v.7066c-4.436-.3974-7.9251-4.1337-7.9251-8.6713v-3.6853c0-2.4292 1.9762-4.4054 4.4053-4.4054h43.9447c2.4292 0 4.4053 1.9762 4.4053 4.4054v1.9933c-5.6502-3.8765-13.6093-3.4536-18.8226 1.7598-2.3608 2.3607-3.8261 5.3782-4.2256 8.6404h-15.0426zm10.3971 23.8752c-.7473.7472-1.9569.7473-2.7043 0-.3612-.3613-.5601-.8414-.5601-1.3522 0-.5107.1989-.991.5601-1.3521l5.0479-5.0479 2.7042 2.7043zm7.2865-7.2866-.975.9751-2.7043-2.7043.975-.975c.0344-.0342.0793-.0514.1242-.0514s.0898.0172.124.0513c.0003.0001.0004.0003.0006.0004l2.4555 2.4555c.0684.0685.0684.1799 0 .2484zm.6746-2.101-1.2779-1.2779 1.5687-1.5687c.1992.2245.4051.4447.6192.6587.2145.2146.4347.4202.6589.6188zm2.1736-3.4514c-2.4592-2.4591-3.8135-5.7287-3.8135-9.2065 0-3.4777 1.3543-6.7474 3.8135-9.2064 5.088-5.0882 13.3242-5.0889 18.4129 0 5.0882 5.088 5.0889 13.3242 0 18.4129-5.0882 5.0883-13.3242 5.0889-18.4129 0z"/><path d="m83.9925 48.7798c-.4822-.1049-.9583.2008-1.063.6832-.3636 1.672-1.1986 3.1987-2.4148 4.4148-3.4957 3.4956-9.1538 3.4959-12.6498 0-3.4876-3.4876-3.4876-9.1623 0-12.6499 3.4957-3.4957 9.1538-3.4961 12.6498 0 1.2149 1.2149 2.0496 2.7399 2.4138 4.4101.1051.4822.5813.7883 1.0634.6827.4821-.1051.7877-.5812.6826-1.0633-.4372-2.0054-1.4387-3.8357-2.896-5.2931-4.1941-4.1941-10.9825-4.1946-15.1771 0-4.1843 4.1843-4.1843 10.9927 0 15.1771 4.1842 4.1842 10.9925 4.1844 15.1771 0 1.4588-1.4589 2.4607-3.2912 2.8972-5.2987.1048-.4821-.2011-.958-.6832-1.0629z"/></g></svg>

<svg width="117" height="130" viewBox="0 0 117 130" fill="none" xmlns="http://www.w3.org/2000/svg">
<circle cx="57.8345" cy="45.4964" r="44.3397" stroke="black" stroke-width="2.31337"/>
<path d="M18.4839 122.659H26.507V124.873H15.8434V110.655H26.2226V112.869H18.4839V116.566H25.3492V118.739H18.4839V122.659ZM42.8968 113.905C45.517 113.905 47.3451 115.387 47.3451 118.658V124.873H44.8061V118.983C44.8061 117.053 43.9124 116.119 42.3687 116.119C40.7032 116.119 39.5454 117.216 39.5454 119.369V124.873H37.0065V118.983C37.0065 117.053 36.1128 116.119 34.5691 116.119C32.8832 116.119 31.7458 117.216 31.7458 119.369V124.873H29.2068V114.027H31.6239V115.408C32.4364 114.433 33.6957 113.905 35.1784 113.905C36.7628 113.905 38.083 114.494 38.8345 115.712C39.7079 114.595 41.1704 113.905 42.8968 113.905ZM56.6018 113.905C59.7704 113.905 62.1062 116.098 62.1062 119.45C62.1062 122.822 59.7704 125.015 56.6018 125.015C55.2206 125.015 54.0019 124.548 53.1285 123.553V128.813H50.5895V114.027H53.0066V115.448C53.8597 114.413 55.119 113.905 56.6018 113.905ZM56.3174 122.842C58.1455 122.842 59.5266 121.522 59.5266 119.45C59.5266 117.378 58.1455 116.058 56.3174 116.058C54.4894 116.058 53.0879 117.378 53.0879 119.45C53.0879 121.522 54.4894 122.842 56.3174 122.842ZM64.5141 124.873V109.802H67.053V124.873H64.5141ZM80.5818 119.511C80.5818 119.714 80.5615 120.019 80.5412 120.262H72.0306C72.3353 121.847 73.6556 122.862 75.5445 122.862C76.7632 122.862 77.7179 122.476 78.4897 121.684L79.8506 123.248C78.8756 124.406 77.3523 125.015 75.4836 125.015C71.8478 125.015 69.4917 122.679 69.4917 119.45C69.4917 116.22 71.8682 113.905 75.0977 113.905C78.2663 113.905 80.5818 116.119 80.5818 119.511ZM75.0977 115.936C73.4525 115.936 72.2541 116.992 72.0103 118.576H78.1647C77.9616 117.012 76.7632 115.936 75.0977 115.936ZM87.8954 125.015C84.5643 125.015 82.1269 122.7 82.1269 119.45C82.1269 116.2 84.5643 113.905 87.8954 113.905C91.2671 113.905 93.6842 116.2 93.6842 119.45C93.6842 122.7 91.2671 125.015 87.8954 125.015ZM87.8954 122.842C89.7438 122.842 91.125 121.522 91.125 119.45C91.125 117.378 89.7438 116.058 87.8954 116.058C86.0674 116.058 84.6862 117.378 84.6862 119.45C84.6862 121.522 86.0674 122.842 87.8954 122.842ZM99.4635 125.015C97.6558 125.015 95.848 124.487 94.8731 123.796L95.848 121.867C96.8027 122.497 98.2651 122.943 99.626 122.943C101.231 122.943 101.901 122.497 101.901 121.745C101.901 119.673 95.1981 121.623 95.1981 117.297C95.1981 115.245 97.0464 113.905 99.9713 113.905C101.413 113.905 103.059 114.25 104.034 114.839L103.059 116.769C102.023 116.159 100.987 115.956 99.951 115.956C98.4073 115.956 97.6761 116.464 97.6761 117.175C97.6761 119.369 104.379 117.419 104.379 121.664C104.379 123.695 102.51 125.015 99.4635 125.015Z" fill="black"/>
<path d="M84.6598 37.0828C84.5512 36.9741 84.4407 36.8681 84.3293 36.7632V33.3295C84.3293 29.915 81.5514 27.1371 78.137 27.1371H67.2751V24.0252C67.2751 20.7028 64.5721 18 61.2499 18H51.0797C47.7573 18 45.0545 20.7028 45.0545 24.0252V27.1371H34.1923C30.7779 27.1371 28 29.915 28 33.3295V60.8928C28 64.3072 30.7779 67.0851 34.1923 67.0851H47.121C47.6145 67.0851 48.0146 66.685 48.0146 66.1916C48.0146 65.6981 47.6145 65.298 47.121 65.298H34.1923C31.7632 65.298 29.787 63.3218 29.787 60.8927V42.8667C31.5367 45.462 34.4149 47.2364 37.7121 47.4808V50.734C37.7121 52.592 39.2238 54.1037 41.0818 54.1037C42.9399 54.1037 44.4515 52.592 44.4515 50.734V47.5099H59.3833C59.3833 47.5242 59.3828 47.5384 59.3828 47.5527C59.3828 50.5954 60.2953 53.4976 61.9893 55.9482L60.0923 57.8452C59.4299 57.6577 58.6876 57.8232 58.1674 58.3438L50.8808 65.6303C49.4385 67.0726 49.4385 69.4194 50.8808 70.8617C52.3265 72.3074 54.6665 72.3076 56.1123 70.8617L63.3988 63.5752C63.9192 63.0548 64.0848 62.3127 63.8974 61.6503L65.7961 59.7516C70.817 63.2097 77.5098 63.2207 82.5425 59.7796V60.8928C82.5425 63.3219 80.5663 65.2981 78.1371 65.2981H64.0232C63.5298 65.2981 63.1297 65.6982 63.1297 66.1917C63.1297 66.6852 63.5298 67.0852 64.0232 67.0852H78.137C81.5514 67.0852 84.3293 64.3073 84.3293 60.8929V58.3424C84.4406 58.2378 84.5511 58.1318 84.6598 58.023C90.4464 52.2365 90.4471 42.87 84.6598 37.0828ZM46.8414 24.0252C46.8414 21.6882 48.7426 19.787 51.0796 19.787H61.2498C63.5867 19.787 65.488 21.6882 65.488 24.0252V27.1371H63.5818V24.0252C63.5818 22.7393 62.5356 21.6931 61.2498 21.6931H51.0796C49.7937 21.6931 48.7475 22.7393 48.7475 24.0252V27.1371H46.8414V24.0252ZM50.5345 27.1371V24.0252C50.5345 23.7247 50.779 23.4802 51.0796 23.4802H61.2498C61.5504 23.4802 61.7948 23.7247 61.7948 24.0252V27.1371H50.5345ZM42.6645 47.9876H39.4992V44.9795C39.4992 44.1068 40.2092 43.3969 41.0819 43.3969C41.9546 43.3969 42.6645 44.1068 42.6645 44.9795V47.9876ZM41.0819 52.3168C40.2092 52.3168 39.4992 51.6068 39.4992 50.7341V49.7746H42.6645V50.7341C42.6645 51.6068 41.9546 52.3168 41.0819 52.3168ZM44.4515 45.7231V44.9795C44.4515 43.1215 42.9399 41.6099 41.0818 41.6099C39.2238 41.6099 37.7121 43.1215 37.7121 44.9795V45.6861C33.2761 45.2887 29.787 41.5524 29.787 37.0148V33.3295C29.787 30.9003 31.7632 28.9241 34.1923 28.9241H78.137C80.5662 28.9241 82.5423 30.9003 82.5423 33.3295V35.3228C76.8921 31.4463 68.933 31.8692 63.7197 37.0826C61.3589 39.4433 59.8936 42.4608 59.4941 45.723H44.4515V45.7231ZM54.8486 69.5983C54.1013 70.3455 52.8917 70.3456 52.1443 69.5983C51.7831 69.237 51.5842 68.7569 51.5842 68.2461C51.5842 67.7354 51.7831 67.2551 52.1443 66.894L57.1922 61.8461L59.8964 64.5504L54.8486 69.5983ZM62.1351 62.3117L61.1601 63.2868L58.4558 60.5825L59.4308 59.6075C59.4652 59.5733 59.5101 59.5561 59.555 59.5561C59.5999 59.5561 59.6448 59.5733 59.679 59.6074C59.6793 59.6075 59.6794 59.6077 59.6796 59.6078L62.1351 62.0633C62.2035 62.1318 62.2035 62.2432 62.1351 62.3117ZM62.8097 60.2107L61.5318 58.9328L63.1005 57.3641C63.2997 57.5886 63.5056 57.8088 63.7197 58.0228C63.9342 58.2374 64.1544 58.443 64.3786 58.6416L62.8097 60.2107ZM64.9833 56.7593C62.5241 54.3002 61.1698 51.0306 61.1698 47.5528C61.1698 44.0751 62.5241 40.8054 64.9833 38.3464C70.0713 33.2582 78.3075 33.2575 83.3962 38.3464C88.4844 43.4344 88.4851 51.6706 83.3962 56.7593C78.308 61.8476 70.072 61.8482 64.9833 56.7593Z" fill="black"/>
<path d="M83.9925 48.7798C83.5103 48.6749 83.0342 48.9806 82.9295 49.463C82.5659 51.135 81.7309 52.6617 80.5147 53.8778C77.019 57.3734 71.3609 57.3737 67.8649 53.8778C64.3773 50.3902 64.3773 44.7155 67.8649 41.2279C71.3606 37.7322 77.0187 37.7318 80.5147 41.2279C81.7296 42.4428 82.5643 43.9678 82.9285 45.638C83.0336 46.1202 83.5098 46.4263 83.9919 46.3207C84.474 46.2156 84.7796 45.7395 84.6745 45.2574C84.2373 43.252 83.2358 41.4217 81.7785 39.9643C77.5844 35.7702 70.796 35.7697 66.6014 39.9643C62.4171 44.1486 62.4171 50.957 66.6014 55.1414C70.7856 59.3256 77.5939 59.3258 81.7785 55.1414C83.2373 53.6825 84.2392 51.8502 84.6757 49.8427C84.7805 49.3606 84.4746 48.8847 83.9925 48.7798Z" fill="black"/>
</svg>
